svgs/google_play_store.svg

<svg width="24" height="24" viewBox="0 0 24 24" fill="none" xmlns="http://www.w3.org/2000/svg">
<path d="M16.1116 7.27313L7.52424 2.3255C7.2274 2.15617 6.89688 2.05402 6.55608 2.02627C6.21528 1.99852 5.87253 2.04585 5.5521 2.16491C5.23166 2.28396 4.94138 2.47184 4.70181 2.71523C4.66813 2.74945 4.63556 2.78465 4.60415 2.82077L12.2305 10.4471C12.4258 10.6424 12.7424 10.6424 12.9376 10.4471L16.1116 7.27313Z" fill="#FFF1C0"/>
<path d="M17.4566 8.0495L13.9983 11.5078C13.803 11.7031 13.803 12.0196 13.9983 12.2149L17.6237 15.8404L20.8081 13.9996C21.1615 13.7965 21.4549 13.5042 21.659 13.1521C21.863 12.8 21.9705 12.4003 21.9705 11.9936C21.9705 11.5869 21.863 11.1872 21.659 10.8351C21.4549 10.4829 21.1615 10.1907 20.8081 9.98763L17.4566 8.0495Z" fill="#FFF1C0"/>
<path d="M16.2718 16.6098L12.9376 13.2756C12.7424 13.0803 12.4258 13.0803 12.2305 13.2756L4.47799 21.0281C4.5198 21.0851 4.56428 21.1404 4.61132 21.1936C4.84781 21.4611 5.14276 21.6707 5.47338 21.8064C5.804 21.9421 6.16147 22.0002 6.51815 21.9761C6.87484 21.952 7.22122 21.8465 7.53053 21.6676L16.2718 16.6098Z" fill="#FFF1C0"/>
<path d="M4.03438 19.3504L11.1699 12.2149C11.3651 12.0197 11.3651 11.7031 11.1699 11.5078L4.03438 4.37232V19.3504Z" fill="#FFF1C0"/>
</svg>

<svg xmlns="http://www.w3.org/2000/svg" width="24" height="24" fill="none" viewBox="0 0 24 24"><path fill="#FFF1C0" d="M16.112 7.273 7.524 2.326a2.337 2.337 0 0 0-2.92.495l7.626 7.626a.5.5 0 0 0 .708 0l3.174-3.174m1.345.777-3.459 3.458a.5.5 0 0 0 0 .707l3.626 3.625L20.808 14a2.319 2.319 0 0 0 1.163-2.006 2.311 2.311 0 0 0-1.163-2.006zm-1.185 8.56-3.334-3.334a.5.5 0 0 0-.708 0l-7.752 7.752a2.333 2.333 0 0 0 3.053.64l8.74-5.058M4.034 19.35l7.136-7.135a.5.5 0 0 0 0-.707L4.034 4.372z"/></svg>
